X:162
T:Up and about in the Morning
R:jig
D:Matt Molloy & Sean Keane: Contentment is Wealth
D:Jerry O'Sullivan
Z:id:hn-jig-162
M:6/8
K:Dmix
~A3 ~D3|A2D A2d|cAG EFG|EFD EFG|~A3 ~D3|A2D A2d|cAG EGE|1 F2D D3:|2 F2D DFA||
|:d2e fed|efe dcA|A2G EFG|EFD EFA|d2e fed|~e3 dcA|A2G EGE|F2D DFA:|
|:~d3 dcA|ded dcA|~A3 AGE|ABA AB^c|d2e fed|efe dcA|A2G EGE|1 F2D DFA:|2 F2D D3||
P:Variations:
|:~A3 ~D3|ABG A2d|cAG EFG|EFG EFG|~A3 ~D3|ABG A2d|cAG EFG|1 FAD D3:|2 FAD DFA||
~d3 faa|g2e dcA|~A3 EFG|EFD EFG|Ade faa|g2e dcA|~A3 EFG|FAD D3||
Ade faf|g2e dcA|A2G EFG|EFD EFA|d2e faf|g2e dcA|A2G EGE|FAD DFA||
|:ded dcA|~d3 dcA|~A3 AGE|~A3 AB^c|d^cd fag|efe dcA|~A3 EFG|1 FAD DFA:|2 F2D D3||

